static/img/icons-concept-style-do-2.svg

<svg width="240" height="240" viewBox="0 0 240 240" fill="none" xmlns="http://www.w3.org/2000/svg"><path fill="#fff" d="M0 0h240v240H0z"/><path stroke="#DFDFDF" d="M39.5 39.5h160v160h-160z"/><path d="M49.5 39.5v160m10-160v160m10-160v160m10-160v160m10-160v160m10-160v160m10-160v160m10-160v160m10-160v160m10-160v160m10-160v160m10-160v160m10-160v160m10-160v160m10-160v160m10-150h-160m160 10h-160m160 10h-160m160 10h-160m160 10h-160m160 10h-160m160 10h-160m160 10h-160m160 10h-160m160 10h-160m160 10h-160m160 10h-160m160 10h-160m160 10h-160m160 10h-160" stroke="#DFDFDF" stroke-linecap="square"/><path fill-rule="evenodd" clip-rule="evenodd" d="M211 39c5.523 0 10-4.477 10-10s-4.477-10-10-10-10 4.477-10 10 4.477 10 10 10Z" fill="#17AA55"/><path d="m207 29.069 2.981 2.98 6.05-6.049" stroke="#fff" stroke-width="2" stroke-linecap="round"/><path d="M64.107 63.607h-.5V84.75h111.786V63.607H64.107Zm0 35.25h-.5v31.214h48.839V98.857H64.107Zm62.947 0h-.5v31.214h48.839V98.857h-48.339Zm-14.608 45.822v-.5H63.607v31.214h48.839v-30.714Zm14.108 30.214v.5h48.839v-31.214h-48.839v30.714ZM49.5 59.071a9.571 9.571 0 0 1 9.571-9.571H179.93a9.57 9.57 0 0 1 9.571 9.571V179.93a9.57 9.57 0 0 1-9.571 9.571H59.071a9.57 9.57 0 0 1-9.571-9.571V59.071Z" fill="#6E49CB" fill-opacity=".3" stroke="#6E49CB"/></svg>

<svg width="240" height="240" viewBox="0 0 240 240" xmlns="http://www.w3.org/2000/svg"><g fill="none" fill-rule="evenodd"><path fill="#FFF" d="M0 0h240v240H0z"/><g stroke="#DFDFDF"><path d="M39.5 39.5h160v160h-160z"/><g stroke-linecap="square"><path d="M49.5 39.5v160M59.5 39.5v160M69.5 39.5v160M79.5 39.5v160M89.5 39.5v160M99.5 39.5v160M109.5 39.5v160M119.5 39.5v160M129.5 39.5v160M139.5 39.5v160M149.5 39.5v160M159.5 39.5v160M169.5 39.5v160M179.5 39.5v160M189.5 39.5v160M199.5 49.5h-160M199.5 59.5h-160M199.5 69.5h-160M199.5 79.5h-160M199.5 89.5h-160M199.5 99.5h-160M199.5 109.5h-160M199.5 119.5h-160M199.5 129.5h-160M199.5 139.5h-160M199.5 149.5h-160M199.5 159.5h-160M199.5 169.5h-160M199.5 179.5h-160M199.5 189.5h-160"/></g></g><g transform="translate(201 19)"><circle fill="#17AA55" cx="10" cy="10" r="10"/><path stroke="#FFF" stroke-width="2" stroke-linecap="round" d="M6 10.069l2.98 2.98L15.03 7"/></g><path d="M190 49v141H49V49h141zm-81 101H70v19h39v-19zm60 0h-39v19h39v-19zm-60-40H70v19h39v-19zm60 0h-39v19h39v-19zm0-40H70v19h99V70z" stroke="#6E49CB" fill-opacity=".3" fill="#6E49CB"/></g></svg>
